bootstrap/envelope-paper-heart-fill.svg

<svg viewBox="0 0 16 16" xmlns="http://www.w3.org/2000/svg"><path fill-rule="evenodd" d="M3 7.5l3.5 2L8 8.75l1.5.75 3.5-2v-6 0c0-.83-.68-1.5-1.5-1.5h-7v0C3.67 0 3 .67 3 1.5v6ZM2 3.133l-.95.5h0c-.66.34-1.06 1.02-1.059 1.76v.31l2 1.173V3.11Zm12 3.753l2-1.173v-.32 0c0-.74-.41-1.42-1.06-1.77l-.95-.51v3.753Zm-3.7 3.32l5.693-3.34v6.5l-5.693-3.17Zm5.63 4.27l-7.95-4.42 -7.941 4.41H.03c.22.89 1.02 1.51 1.941 1.516h12v0c.91 0 1.71-.63 1.94-1.516ZM5.682 10.19L-.02 13.35v-6.5l5.693 3.33Zm2.3-8.228c1.66-1.68 5.82 1.25 0 5.01 -5.825-3.77-1.67-6.69 0-5.018Z"/></svg>

<svg xmlns="http://www.w3.org/2000/svg" width="16" height="16" fill="currentColor" class="bi bi-envelope-paper-heart-fill" viewBox="0 0 16 16">
  <path fill-rule="evenodd" d="m3 7.5 3.5 2L8 8.75l1.5.75 3.5-2v-6A1.5 1.5 0 0 0 11.5 0h-7A1.5 1.5 0 0 0 3 1.5zM2 3.133l-.941.502A2 2 0 0 0 0 5.4v.313l2 1.173zm12 3.753 2-1.173V5.4a2 2 0 0 0-1.059-1.765L14 3.133zm-3.693 3.324L16 6.873v6.5zm5.634 4.274L8 10.072.059 14.484A2 2 0 0 0 2 16h12a2 2 0 0 0 1.941-1.516M5.693 10.21 0 13.372v-6.5zM8 1.982C9.664.309 13.825 3.236 8 7 2.175 3.236 6.336.31 8 1.982"/>
</svg>
